(Generated by PartKam Version 0.05)

G20 G90 G40

(insidering)
G0 Z0.125
T0 M6
G17
M3
G0 X3.4273 Y2.8847
G1 Z-0.15 F30
G3 X3.3213 Y3.0569 I-1.1758 J-0.6047 F20
G3 X3.1903 Y3.211 I-1.0698 J-0.777
G3 X3.0458 Y3.335 I-0.84 J-0.8331
G3 X2.8833 Y3.4341 I-0.6955 J-0.9571
G3 X2.6963 Y3.5112 I-0.5957 J-1.1804
G3 X2.5716 Y3.5451 I-0.4086 J-1.2574
G3 X2.4997 Y3.5588 I-0.284 J-1.2913
G3 X2.3099 Y3.5741 I-0.1898 J-1.1678
G3 X2.1202 Y3.5588 I0 J-1.1831
G3 X2.0753 Y3.5507 I0.2121 J-1.305
G3 X1.9236 Y3.5112 I0.257 J-1.2969
G3 X1.7366 Y3.4341 I0.4086 J-1.2574
G3 X1.5741 Y3.335 I0.533 J-1.0562
G3 X1.4296 Y3.211 I0.6955 J-0.9571
G3 X1.2986 Y3.0569 I0.9387 J-0.9311
G3 X1.1926 Y2.8847 I1.0698 J-0.777
G3 X1.1194 Y2.7089 I1.0521 J-0.5411
G3 X1.0754 Y2.5237 I1.1253 J-0.3654
G3 X1.0599 Y2.3224 I1.3067 J-0.2013
G1 X1.0599 Y2.3222
G1 X1.0599 Y2.3218
G1 X1.0599 Y2.3216
G3 X1.0754 Y2.1203 I1.3222 J0
G3 X1.1194 Y1.9351 I1.1693 J0.1801
G3 X1.1926 Y1.7593 I1.1253 J0.3654
G3 X1.2986 Y1.5871 I1.1758 J0.6047
G3 X1.4296 Y1.433 I1.0698 J0.777
G3 X1.5741 Y1.309 I0.84 J0.8331
G3 X1.7366 Y1.2099 I0.6955 J0.9571
G3 X1.9236 Y1.1328 I0.5957 J1.1804
G3 X2.0945 Y1.0896 I0.4086 J1.2574
G3 X2.1202 Y1.0852 I0.2377 J1.3006
G3 X2.3099 Y1.0699 I0.1898 J1.1678
G3 X2.4997 Y1.0852 I0 J1.1831
G3 X2.5907 Y1.1033 I-0.2121 J1.305
G3 X2.6963 Y1.1328 I-0.3031 J1.287
G3 X2.8833 Y1.2099 I-0.4086 J1.2574
G3 X3.0458 Y1.309 I-0.533 J1.0562
G3 X3.1903 Y1.433 I-0.6955 J0.9571
G3 X3.3213 Y1.5871 I-0.9387 J0.9311
G3 X3.4273 Y1.7593 I-1.0698 J0.777
G3 X3.5005 Y1.9351 I-1.0521 J0.5411
G3 X3.5445 Y2.1203 I-1.1253 J0.3654
G3 X3.5599 Y2.3216 I-1.3067 J0.2013
G1 X3.5599 Y2.3219
G1 X3.5599 Y2.3222
G1 X3.5599 Y2.3224
G3 X3.5445 Y2.5237 I-1.3222 J0
G3 X3.5005 Y2.7089 I-1.1693 J-0.1801
G3 X3.4273 Y2.8847 I-1.1253 J-0.3654
G1 Z-0.3 F30
G3 X3.3213 Y3.0569 I-1.1758 J-0.6047 F20
G3 X3.1903 Y3.211 I-1.0698 J-0.777
G3 X3.0458 Y3.335 I-0.84 J-0.8331
G3 X2.8833 Y3.4341 I-0.6955 J-0.9571
G3 X2.6963 Y3.5112 I-0.5957 J-1.1804
G3 X2.5716 Y3.5451 I-0.4086 J-1.2574
G3 X2.4997 Y3.5588 I-0.284 J-1.2913
G3 X2.3099 Y3.5741 I-0.1898 J-1.1678
G3 X2.1202 Y3.5588 I0 J-1.1831
G3 X2.0753 Y3.5507 I0.2121 J-1.305
G3 X1.9236 Y3.5112 I0.257 J-1.2969
G3 X1.7366 Y3.4341 I0.4086 J-1.2574
G3 X1.5741 Y3.335 I0.533 J-1.0562
G3 X1.4296 Y3.211 I0.6955 J-0.9571
G3 X1.2986 Y3.0569 I0.9387 J-0.9311
G3 X1.1926 Y2.8847 I1.0698 J-0.777
G3 X1.1194 Y2.7089 I1.0521 J-0.5411
G3 X1.0754 Y2.5237 I1.1253 J-0.3654
G3 X1.0599 Y2.3224 I1.3067 J-0.2013
G1 X1.0599 Y2.3222
G1 X1.0599 Y2.3218
G1 X1.0599 Y2.3216
G3 X1.0754 Y2.1203 I1.3222 J0
G3 X1.1194 Y1.9351 I1.1693 J0.1801
G3 X1.1926 Y1.7593 I1.1253 J0.3654
G3 X1.2986 Y1.5871 I1.1758 J0.6047
G3 X1.4296 Y1.433 I1.0698 J0.777
G3 X1.5741 Y1.309 I0.84 J0.8331
G3 X1.7366 Y1.2099 I0.6955 J0.9571
G3 X1.9236 Y1.1328 I0.5957 J1.1804
G3 X2.0945 Y1.0896 I0.4086 J1.2574
G3 X2.1202 Y1.0852 I0.2377 J1.3006
G3 X2.3099 Y1.0699 I0.1898 J1.1678
G3 X2.4997 Y1.0852 I0 J1.1831
G3 X2.5907 Y1.1033 I-0.2121 J1.305
G3 X2.6963 Y1.1328 I-0.3031 J1.287
G3 X2.8833 Y1.2099 I-0.4086 J1.2574
G3 X3.0458 Y1.309 I-0.533 J1.0562
G3 X3.1903 Y1.433 I-0.6955 J0.9571
G3 X3.3213 Y1.5871 I-0.9387 J0.9311
G3 X3.4273 Y1.7593 I-1.0698 J0.777
G3 X3.5005 Y1.9351 I-1.0521 J0.5411
G3 X3.5445 Y2.1203 I-1.1253 J0.3654
G3 X3.5599 Y2.3216 I-1.3067 J0.2013
G1 X3.5599 Y2.3219
G1 X3.5599 Y2.3222
G1 X3.5599 Y2.3224
G3 X3.5445 Y2.5237 I-1.3222 J0
G3 X3.5005 Y2.7089 I-1.1693 J-0.1801
G3 X3.4273 Y2.8847 I-1.1253 J-0.3654
G1 Z-0.45 F30
G3 X3.3213 Y3.0569 I-1.1758 J-0.6047 F20
G3 X3.1903 Y3.211 I-1.0698 J-0.777
G3 X3.0458 Y3.335 I-0.84 J-0.8331
G3 X2.8833 Y3.4341 I-0.6955 J-0.9571
G3 X2.6963 Y3.5112 I-0.5957 J-1.1804
G3 X2.5716 Y3.5451 I-0.4086 J-1.2574
G3 X2.4997 Y3.5588 I-0.284 J-1.2913
G3 X2.3099 Y3.5741 I-0.1898 J-1.1678
G3 X2.1202 Y3.5588 I0 J-1.1831
G3 X2.0753 Y3.5507 I0.2121 J-1.305
G3 X1.9236 Y3.5112 I0.257 J-1.2969
G3 X1.7366 Y3.4341 I0.4086 J-1.2574
G3 X1.5741 Y3.335 I0.533 J-1.0562
G3 X1.4296 Y3.211 I0.6955 J-0.9571
G3 X1.2986 Y3.0569 I0.9387 J-0.9311
G3 X1.1926 Y2.8847 I1.0698 J-0.777
G3 X1.1194 Y2.7089 I1.0521 J-0.5411
G3 X1.0754 Y2.5237 I1.1253 J-0.3654
G3 X1.0599 Y2.3224 I1.3067 J-0.2013
G1 X1.0599 Y2.3222
G1 X1.0599 Y2.3218
G1 X1.0599 Y2.3216
G3 X1.0754 Y2.1203 I1.3222 J0
G3 X1.1194 Y1.9351 I1.1693 J0.1801
G3 X1.1926 Y1.7593 I1.1253 J0.3654
G3 X1.2986 Y1.5871 I1.1758 J0.6047
G3 X1.4296 Y1.433 I1.0698 J0.777
G3 X1.5741 Y1.309 I0.84 J0.8331
G3 X1.7366 Y1.2099 I0.6955 J0.9571
G3 X1.9236 Y1.1328 I0.5957 J1.1804
G3 X2.0945 Y1.0896 I0.4086 J1.2574
G3 X2.1202 Y1.0852 I0.2377 J1.3006
G3 X2.3099 Y1.0699 I0.1898 J1.1678
G3 X2.4997 Y1.0852 I0 J1.1831
G3 X2.5907 Y1.1033 I-0.2121 J1.305
G3 X2.6963 Y1.1328 I-0.3031 J1.287
G3 X2.8833 Y1.2099 I-0.4086 J1.2574
G3 X3.0458 Y1.309 I-0.533 J1.0562
G3 X3.1903 Y1.433 I-0.6955 J0.9571
G3 X3.3213 Y1.5871 I-0.9387 J0.9311
G3 X3.4273 Y1.7593 I-1.0698 J0.777
G3 X3.5005 Y1.9351 I-1.0521 J0.5411
G3 X3.5445 Y2.1203 I-1.1253 J0.3654
G3 X3.5599 Y2.3216 I-1.3067 J0.2013
G1 X3.5599 Y2.3219
G1 X3.5599 Y2.3222
G1 X3.5599 Y2.3224
G3 X3.5445 Y2.5237 I-1.3222 J0
G3 X3.5005 Y2.7089 I-1.1693 J-0.1801
G3 X3.4273 Y2.8847 I-1.1253 J-0.3654
G1 Z-0.6 F30
G3 X3.3213 Y3.0569 I-1.1758 J-0.6047 F20
G3 X3.1903 Y3.211 I-1.0698 J-0.777
G3 X3.0458 Y3.335 I-0.84 J-0.8331
G3 X2.8833 Y3.4341 I-0.6955 J-0.9571
G3 X2.6963 Y3.5112 I-0.5957 J-1.1804
G3 X2.5716 Y3.5451 I-0.4086 J-1.2574
G1 Z-0.55 F30
G3 X2.4997 Y3.5588 I-0.284 J-1.2913 F20
G3 X2.3099 Y3.5741 I-0.1898 J-1.1678
G3 X2.1202 Y3.5588 I0 J-1.1831
G3 X2.0753 Y3.5507 I0.2121 J-1.305
G1 Z-0.6 F30
G3 X1.9236 Y3.5112 I0.257 J-1.2969 F20
G3 X1.7366 Y3.4341 I0.4086 J-1.2574
G3 X1.5741 Y3.335 I0.533 J-1.0562
G3 X1.4296 Y3.211 I0.6955 J-0.9571
G3 X1.2986 Y3.0569 I0.9387 J-0.9311
G3 X1.1926 Y2.8847 I1.0698 J-0.777
G3 X1.1194 Y2.7089 I1.0521 J-0.5411
G3 X1.0754 Y2.5237 I1.1253 J-0.3654
G3 X1.0599 Y2.3224 I1.3067 J-0.2013
G1 X1.0599 Y2.3222
G1 X1.0599 Y2.3218
G1 X1.0599 Y2.3216
G3 X1.0754 Y2.1203 I1.3222 J0
G3 X1.1194 Y1.9351 I1.1693 J0.1801
G3 X1.1926 Y1.7593 I1.1253 J0.3654
G3 X1.2986 Y1.5871 I1.1758 J0.6047
G3 X1.4296 Y1.433 I1.0698 J0.777
G3 X1.5741 Y1.309 I0.84 J0.8331
G3 X1.7366 Y1.2099 I0.6955 J0.9571
G3 X1.9236 Y1.1328 I0.5957 J1.1804
G3 X2.0945 Y1.0896 I0.4086 J1.2574
G1 Z-0.55 F30
G3 X2.1202 Y1.0852 I0.2377 J1.3006 F20
G3 X2.3099 Y1.0699 I0.1898 J1.1678
G3 X2.4997 Y1.0852 I0 J1.1831
G3 X2.5907 Y1.1033 I-0.2121 J1.305
G1 Z-0.6 F30
G3 X2.6963 Y1.1328 I-0.3031 J1.287 F20
G3 X2.8833 Y1.2099 I-0.4086 J1.2574
G3 X3.0458 Y1.309 I-0.533 J1.0562
G3 X3.1903 Y1.433 I-0.6955 J0.9571
G3 X3.3213 Y1.5871 I-0.9387 J0.9311
G3 X3.4273 Y1.7593 I-1.0698 J0.777
G3 X3.5005 Y1.9351 I-1.0521 J0.5411
G3 X3.5445 Y2.1203 I-1.1253 J0.3654
G3 X3.5599 Y2.3216 I-1.3067 J0.2013
G1 X3.5599 Y2.3219
G1 X3.5599 Y2.3222
G1 X3.5599 Y2.3224
G3 X3.5445 Y2.5237 I-1.3222 J0
G3 X3.5005 Y2.7089 I-1.1693 J-0.1801
G3 X3.4273 Y2.8847 I-1.1253 J-0.3654
G1 Z-0.75 F30
G3 X3.3213 Y3.0569 I-1.1758 J-0.6047 F20
G3 X3.1903 Y3.211 I-1.0698 J-0.777
G3 X3.0458 Y3.335 I-0.84 J-0.8331
G3 X2.8833 Y3.4341 I-0.6955 J-0.9571
G3 X2.6963 Y3.5112 I-0.5957 J-1.1804
G3 X2.5716 Y3.5451 I-0.4086 J-1.2574
G1 Z-0.55 F30
G3 X2.4997 Y3.5588 I-0.284 J-1.2913 F20
G3 X2.3099 Y3.5741 I-0.1898 J-1.1678
G3 X2.1202 Y3.5588 I0 J-1.1831
G3 X2.0753 Y3.5507 I0.2121 J-1.305
G1 Z-0.75 F30
G3 X1.9236 Y3.5112 I0.257 J-1.2969 F20
G3 X1.7366 Y3.4341 I0.4086 J-1.2574
G3 X1.5741 Y3.335 I0.533 J-1.0562
G3 X1.4296 Y3.211 I0.6955 J-0.9571
G3 X1.2986 Y3.0569 I0.9387 J-0.9311
G3 X1.1926 Y2.8847 I1.0698 J-0.777
G3 X1.1194 Y2.7089 I1.0521 J-0.5411
G3 X1.0754 Y2.5237 I1.1253 J-0.3654
G3 X1.0599 Y2.3224 I1.3067 J-0.2013
G1 X1.0599 Y2.3222
G1 X1.0599 Y2.3218
G1 X1.0599 Y2.3216
G3 X1.0754 Y2.1203 I1.3222 J0
G3 X1.1194 Y1.9351 I1.1693 J0.1801
G3 X1.1926 Y1.7593 I1.1253 J0.3654
G3 X1.2986 Y1.5871 I1.1758 J0.6047
G3 X1.4296 Y1.433 I1.0698 J0.777
G3 X1.5741 Y1.309 I0.84 J0.8331
G3 X1.7366 Y1.2099 I0.6955 J0.9571
G3 X1.9236 Y1.1328 I0.5957 J1.1804
G3 X2.0945 Y1.0896 I0.4086 J1.2574
G1 Z-0.55 F30
G3 X2.1202 Y1.0852 I0.2377 J1.3006 F20
G3 X2.3099 Y1.0699 I0.1898 J1.1678
G3 X2.4997 Y1.0852 I0 J1.1831
G3 X2.5907 Y1.1033 I-0.2121 J1.305
G1 Z-0.75 F30
G3 X2.6963 Y1.1328 I-0.3031 J1.287 F20
G3 X2.8833 Y1.2099 I-0.4086 J1.2574
G3 X3.0458 Y1.309 I-0.533 J1.0562
G3 X3.1903 Y1.433 I-0.6955 J0.9571
G3 X3.3213 Y1.5871 I-0.9387 J0.9311
G3 X3.4273 Y1.7593 I-1.0698 J0.777
G3 X3.5005 Y1.9351 I-1.0521 J0.5411
G3 X3.5445 Y2.1203 I-1.1253 J0.3654
G3 X3.5599 Y2.3216 I-1.3067 J0.2013
G1 X3.5599 Y2.3219
G1 X3.5599 Y2.3222
G1 X3.5599 Y2.3224
G3 X3.5445 Y2.5237 I-1.3222 J0
G3 X3.5005 Y2.7089 I-1.1693 J-0.1801
G3 X3.4273 Y2.8847 I-1.1253 J-0.3654
G1 Z-0.8 F30
G3 X3.3213 Y3.0569 I-1.1758 J-0.6047 F20
G3 X3.1903 Y3.211 I-1.0698 J-0.777
G3 X3.0458 Y3.335 I-0.84 J-0.8331
G3 X2.8833 Y3.4341 I-0.6955 J-0.9571
G3 X2.6963 Y3.5112 I-0.5957 J-1.1804
G3 X2.5716 Y3.5451 I-0.4086 J-1.2574
G1 Z-0.55 F30
G3 X2.4997 Y3.5588 I-0.284 J-1.2913 F20
G3 X2.3099 Y3.5741 I-0.1898 J-1.1678
G3 X2.1202 Y3.5588 I0 J-1.1831
G3 X2.0753 Y3.5507 I0.2121 J-1.305
G1 Z-0.8 F30
G3 X1.9236 Y3.5112 I0.257 J-1.2969 F20
G3 X1.7366 Y3.4341 I0.4086 J-1.2574
G3 X1.5741 Y3.335 I0.533 J-1.0562
G3 X1.4296 Y3.211 I0.6955 J-0.9571
G3 X1.2986 Y3.0569 I0.9387 J-0.9311
G3 X1.1926 Y2.8847 I1.0698 J-0.777
G3 X1.1194 Y2.7089 I1.0521 J-0.5411
G3 X1.0754 Y2.5237 I1.1253 J-0.3654
G3 X1.0599 Y2.3224 I1.3067 J-0.2013
G1 X1.0599 Y2.3222
G1 X1.0599 Y2.3218
G1 X1.0599 Y2.3216
G3 X1.0754 Y2.1203 I1.3222 J0
G3 X1.1194 Y1.9351 I1.1693 J0.1801
G3 X1.1926 Y1.7593 I1.1253 J0.3654
G3 X1.2986 Y1.5871 I1.1758 J0.6047
G3 X1.4296 Y1.433 I1.0698 J0.777
G3 X1.5741 Y1.309 I0.84 J0.8331
G3 X1.7366 Y1.2099 I0.6955 J0.9571
G3 X1.9236 Y1.1328 I0.5957 J1.1804
G3 X2.0945 Y1.0896 I0.4086 J1.2574
G1 Z-0.55 F30
G3 X2.1202 Y1.0852 I0.2377 J1.3006 F20
G3 X2.3099 Y1.0699 I0.1898 J1.1678
G3 X2.4997 Y1.0852 I0 J1.1831
G3 X2.5907 Y1.1033 I-0.2121 J1.305
G1 Z-0.8 F30
G3 X2.6963 Y1.1328 I-0.3031 J1.287 F20
G3 X2.8833 Y1.2099 I-0.4086 J1.2574
G3 X3.0458 Y1.309 I-0.533 J1.0562
G3 X3.1903 Y1.433 I-0.6955 J0.9571
G3 X3.3213 Y1.5871 I-0.9387 J0.9311
G3 X3.4273 Y1.7593 I-1.0698 J0.777
G3 X3.5005 Y1.9351 I-1.0521 J0.5411
G3 X3.5445 Y2.1203 I-1.1253 J0.3654
G3 X3.5599 Y2.3216 I-1.3067 J0.2013
G1 X3.5599 Y2.3219
G1 X3.5599 Y2.3222
G1 X3.5599 Y2.3224
G3 X3.5445 Y2.5237 I-1.3222 J0
G3 X3.5005 Y2.7089 I-1.1693 J-0.1801
G3 X3.4273 Y2.8847 I-1.1253 J-0.3654

(topringpocket)
G0 Z0.125
G0 X2.3349 Y5.172
G1 Z-0.15 F30
G1 X2.3349 Y5.472 F20
G1 X2.2849 Y5.472
G1 X2.2849 Y5.172
G1 X2.3349 Y5.172
G1 X2.3832 Y5.072 F20
G2 X2.4716 Y5.0354 I0 J-0.125 F20
G2 X2.4349 Y5.1238 I0.0884 J0.0884
G1 X2.4349 Y5.1238
G1 X2.4349 Y5.5202
G1 X2.4349 Y5.5202
G2 X2.4716 Y5.6086 I0.125 J0
G2 X2.3832 Y5.572 I-0.0884 J0.0884
G1 X2.2367 Y5.572
G2 X2.1483 Y5.6086 I0 J0.125
G2 X2.1849 Y5.5202 I-0.0884 J-0.0884
G1 X2.1849 Y5.5202
G1 X2.1849 Y5.1238
G1 X2.1849 Y5.1238
G2 X2.1483 Y5.0354 I-0.125 J0
G2 X2.2367 Y5.072 I0.0884 J-0.0884
G1 X2.3832 Y5.072
G0 Z0.125
G0 X2.3349 Y5.172
G1 Z-0.3 F30
G1 X2.3349 Y5.472 F20
G1 X2.2849 Y5.472
G1 X2.2849 Y5.172
G1 X2.3349 Y5.172
G1 X2.3832 Y5.072 F20
G2 X2.4716 Y5.0354 I0 J-0.125 F20
G2 X2.4349 Y5.1238 I0.0884 J0.0884
G1 X2.4349 Y5.1238
G1 X2.4349 Y5.5202
G1 X2.4349 Y5.5202
G2 X2.4716 Y5.6086 I0.125 J0
G2 X2.3832 Y5.572 I-0.0884 J0.0884
G1 X2.2367 Y5.572
G2 X2.1483 Y5.6086 I0 J0.125
G2 X2.1849 Y5.5202 I-0.0884 J-0.0884
G1 X2.1849 Y5.5202
G1 X2.1849 Y5.1238
G1 X2.1849 Y5.1238
G2 X2.1483 Y5.0354 I-0.125 J0
G2 X2.2367 Y5.072 I0.0884 J-0.0884
G1 X2.3832 Y5.072
G0 Z0.125
G0 X2.3349 Y5.172
G1 Z-0.45 F30
G1 X2.3349 Y5.472 F20
G1 X2.2849 Y5.472
G1 X2.2849 Y5.172
G1 X2.3349 Y5.172
G1 X2.3832 Y5.072 F20
G2 X2.4716 Y5.0354 I0 J-0.125 F20
G2 X2.4349 Y5.1238 I0.0884 J0.0884
G1 X2.4349 Y5.1238
G1 X2.4349 Y5.5202
G1 X2.4349 Y5.5202
G2 X2.4716 Y5.6086 I0.125 J0
G2 X2.3832 Y5.572 I-0.0884 J0.0884
G1 X2.2367 Y5.572
G2 X2.1483 Y5.6086 I0 J0.125
G2 X2.1849 Y5.5202 I-0.0884 J-0.0884
G1 X2.1849 Y5.5202
G1 X2.1849 Y5.1238
G1 X2.1849 Y5.1238
G2 X2.1483 Y5.0354 I-0.125 J0
G2 X2.2367 Y5.072 I0.0884 J-0.0884
G1 X2.3832 Y5.072
G0 Z0.125
G0 X2.3349 Y5.172
G1 Z-0.6 F30
G1 X2.3349 Y5.472 F20
G1 X2.2849 Y5.472
G1 X2.2849 Y5.172
G1 X2.3349 Y5.172
G1 X2.3832 Y5.072 F20
G2 X2.4716 Y5.0354 I0 J-0.125 F20
G2 X2.4349 Y5.1238 I0.0884 J0.0884
G1 X2.4349 Y5.1238
G1 X2.4349 Y5.5202
G1 X2.4349 Y5.5202
G2 X2.4716 Y5.6086 I0.125 J0
G2 X2.3832 Y5.572 I-0.0884 J0.0884
G1 X2.2367 Y5.572
G2 X2.1483 Y5.6086 I0 J0.125
G2 X2.1849 Y5.5202 I-0.0884 J-0.0884
G1 X2.1849 Y5.5202
G1 X2.1849 Y5.1238
G1 X2.1849 Y5.1238
G2 X2.1483 Y5.0354 I-0.125 J0
G2 X2.2367 Y5.072 I0.0884 J-0.0884
G1 X2.3832 Y5.072
G0 Z0.125
G0 X2.3349 Y5.172
G1 Z-0.75 F30
G1 X2.3349 Y5.472 F20
G1 X2.2849 Y5.472
G1 X2.2849 Y5.172
G1 X2.3349 Y5.172
G1 X2.3832 Y5.072 F20
G2 X2.4716 Y5.0354 I0 J-0.125 F20
G2 X2.4349 Y5.1238 I0.0884 J0.0884
G1 X2.4349 Y5.1238
G1 X2.4349 Y5.5202
G1 X2.4349 Y5.5202
G2 X2.4716 Y5.6086 I0.125 J0
G2 X2.3832 Y5.572 I-0.0884 J0.0884
G1 X2.2367 Y5.572
G2 X2.1483 Y5.6086 I0 J0.125
G2 X2.1849 Y5.5202 I-0.0884 J-0.0884
G1 X2.1849 Y5.5202
G1 X2.1849 Y5.1238
G1 X2.1849 Y5.1238
G2 X2.1483 Y5.0354 I-0.125 J0
G2 X2.2367 Y5.072 I0.0884 J-0.0884
G1 X2.3832 Y5.072
G0 Z0.125
G0 X2.3349 Y5.172
G1 Z-0.8 F30
G1 X2.3349 Y5.472 F20
G1 X2.2849 Y5.472
G1 X2.2849 Y5.172
G1 X2.3349 Y5.172
G1 X2.3832 Y5.072 F20
G2 X2.4716 Y5.0354 I0 J-0.125 F20
G2 X2.4349 Y5.1238 I0.0884 J0.0884
G1 X2.4349 Y5.1238
G1 X2.4349 Y5.5202
G1 X2.4349 Y5.5202
G2 X2.4716 Y5.6086 I0.125 J0
G2 X2.3832 Y5.572 I-0.0884 J0.0884
G1 X2.2367 Y5.572
G2 X2.1483 Y5.6086 I0 J0.125
G2 X2.1849 Y5.5202 I-0.0884 J-0.0884
G1 X2.1849 Y5.5202
G1 X2.1849 Y5.1238
G1 X2.1849 Y5.1238
G2 X2.1483 Y5.0354 I-0.125 J0
G2 X2.2367 Y5.072 I0.0884 J-0.0884
G1 X2.3832 Y5.072

(topringout)
G0 Z0.125
G0 X1.5599 Y5.947
G1 Z-0.15 F30
G1 X1.5599 Y4.5756 F20
G3 X1.2425 Y4.4464 I0.7933 J-2.4032
G3 X0.8907 Y4.2323 I0.9804 J-2.0073
G3 X0.6024 Y3.9767 I1.3323 J-1.7931
G3 X0.5841 Y3.9572 I1.6205 J-1.5376
G3 X0.3159 Y3.6122 I1.8566 J-1.7198
G3 X0.2968 Y3.5821 I2.1248 J-1.3748
G3 X0.1111 Y3.2262 I2.144 J-1.3447
G3 X-0.0142 Y2.8338 I2.0563 J-0.8729
G3 X-0.0653 Y2.4251 I2.1816 J-0.4805
G3 X-0.0666 Y2.3438 I2.5294 J-0.0813
G3 X-0.0416 Y1.9888 I2.5307 J0
G3 X0.0568 Y1.5632 I2.5057 J0.355
G3 X0.2195 Y1.1847 I2.125 J0.6891
G3 X0.4489 Y0.8426 I1.9623 J1.0676
G3 X0.7528 Y0.5287 I1.9632 J1.597
G3 X1.1062 Y0.2718 I1.6593 J1.9109
G3 X1.4771 Y0.0927 I1.1527 J1.9135
G3 X1.8747 Y-0.0153 I0.7817 J2.0927
G3 X2.253 Y-0.0524 I0.4353 J2.493
G3 X2.3099 Y-0.053 I0.0569 J2.5301
G3 X2.7452 Y-0.0153 I0 J2.5307
G3 X2.7508 Y-0.0143 I-0.3842 J2.2006
G3 X3.1428 Y0.0927 I-0.3898 J2.1996
G3 X3.5137 Y0.2718 I-0.7817 J2.0927
G3 X3.8671 Y0.5287 I-1.3059 J2.1678
G3 X4.171 Y0.8426 I-1.6593 J1.9109
G3 X4.4004 Y1.1847 I-1.7329 J1.4097
G3 X4.5631 Y1.5632 I-1.9623 J1.0676
G3 X4.6615 Y1.9888 I-2.4073 J0.7807
G3 X4.6865 Y2.3438 I-2.5057 J0.355
G3 X4.6852 Y2.4251 I-2.5307 J0
G3 X4.6341 Y2.8338 I-2.2328 J-0.0717
G3 X4.5087 Y3.2262 I-2.1816 J-0.4805
G3 X4.3276 Y3.5749 I-2.3296 J-0.9889
G3 X4.3039 Y3.6122 I-2.1484 J-1.3375
G3 X4.0358 Y3.9572 I-2.1248 J-1.3748
G3 X4.0233 Y3.9706 I-1.6389 J-1.518
G3 X3.7292 Y4.2323 I-1.6263 J-1.5315
G3 X3.3773 Y4.4464 I-1.3323 J-1.7931
G3 X3.0599 Y4.5756 I-1.1107 J-2.274
G1 X3.0599 Y5.947
G3 X3.0409 Y6.0427 I-0.25 J0
G3 X2.9867 Y6.1238 I-0.231 J-0.0957
G3 X2.9056 Y6.178 I-0.1768 J-0.1768
G3 X2.8099 Y6.197 I-0.0957 J-0.231
G1 X1.8099 Y6.197
G3 X1.7452 Y6.1885 I0 J-0.25
G3 X1.6849 Y6.1635 I0.0647 J-0.2415
G3 X1.6332 Y6.1238 I0.125 J-0.2165
G3 X1.5934 Y6.072 I0.1768 J-0.1768
G3 X1.5685 Y6.0117 I0.2165 J-0.125
G3 X1.5599 Y5.947 I0.2415 J-0.0647
G1 Z-0.3 F30
G1 X1.5599 Y4.5756 F20
G3 X1.2425 Y4.4464 I0.7933 J-2.4032
G3 X0.8907 Y4.2323 I0.9804 J-2.0073
G3 X0.6024 Y3.9767 I1.3323 J-1.7931
G3 X0.5841 Y3.9572 I1.6205 J-1.5376
G3 X0.3159 Y3.6122 I1.8566 J-1.7198
G3 X0.2968 Y3.5821 I2.1248 J-1.3748
G3 X0.1111 Y3.2262 I2.144 J-1.3447
G3 X-0.0142 Y2.8338 I2.0563 J-0.8729
G3 X-0.0653 Y2.4251 I2.1816 J-0.4805
G3 X-0.0666 Y2.3438 I2.5294 J-0.0813
G3 X-0.0416 Y1.9888 I2.5307 J0
G3 X0.0568 Y1.5632 I2.5057 J0.355
G3 X0.2195 Y1.1847 I2.125 J0.6891
G3 X0.4489 Y0.8426 I1.9623 J1.0676
G3 X0.7528 Y0.5287 I1.9632 J1.597
G3 X1.1062 Y0.2718 I1.6593 J1.9109
G3 X1.4771 Y0.0927 I1.1527 J1.9135
G3 X1.8747 Y-0.0153 I0.7817 J2.0927
G3 X2.253 Y-0.0524 I0.4353 J2.493
G3 X2.3099 Y-0.053 I0.0569 J2.5301
G3 X2.7452 Y-0.0153 I0 J2.5307
G3 X2.7508 Y-0.0143 I-0.3842 J2.2006
G3 X3.1428 Y0.0927 I-0.3898 J2.1996
G3 X3.5137 Y0.2718 I-0.7817 J2.0927
G3 X3.8671 Y0.5287 I-1.3059 J2.1678
G3 X4.171 Y0.8426 I-1.6593 J1.9109
G3 X4.4004 Y1.1847 I-1.7329 J1.4097
G3 X4.5631 Y1.5632 I-1.9623 J1.0676
G3 X4.6615 Y1.9888 I-2.4073 J0.7807
G3 X4.6865 Y2.3438 I-2.5057 J0.355
G3 X4.6852 Y2.4251 I-2.5307 J0
G3 X4.6341 Y2.8338 I-2.2328 J-0.0717
G3 X4.5087 Y3.2262 I-2.1816 J-0.4805
G3 X4.3276 Y3.5749 I-2.3296 J-0.9889
G3 X4.3039 Y3.6122 I-2.1484 J-1.3375
G3 X4.0358 Y3.9572 I-2.1248 J-1.3748
G3 X4.0233 Y3.9706 I-1.6389 J-1.518
G3 X3.7292 Y4.2323 I-1.6263 J-1.5315
G3 X3.3773 Y4.4464 I-1.3323 J-1.7931
G3 X3.0599 Y4.5756 I-1.1107 J-2.274
G1 X3.0599 Y5.947
G3 X3.0409 Y6.0427 I-0.25 J0
G3 X2.9867 Y6.1238 I-0.231 J-0.0957
G3 X2.9056 Y6.178 I-0.1768 J-0.1768
G3 X2.8099 Y6.197 I-0.0957 J-0.231
G1 X1.8099 Y6.197
G3 X1.7452 Y6.1885 I0 J-0.25
G3 X1.6849 Y6.1635 I0.0647 J-0.2415
G3 X1.6332 Y6.1238 I0.125 J-0.2165
G3 X1.5934 Y6.072 I0.1768 J-0.1768
G3 X1.5685 Y6.0117 I0.2165 J-0.125
G3 X1.5599 Y5.947 I0.2415 J-0.0647
G1 Z-0.45 F30
G1 X1.5599 Y4.5756 F20
G3 X1.2425 Y4.4464 I0.7933 J-2.4032
G3 X0.8907 Y4.2323 I0.9804 J-2.0073
G3 X0.6024 Y3.9767 I1.3323 J-1.7931
G3 X0.5841 Y3.9572 I1.6205 J-1.5376
G3 X0.3159 Y3.6122 I1.8566 J-1.7198
G3 X0.2968 Y3.5821 I2.1248 J-1.3748
G3 X0.1111 Y3.2262 I2.144 J-1.3447
G3 X-0.0142 Y2.8338 I2.0563 J-0.8729
G3 X-0.0653 Y2.4251 I2.1816 J-0.4805
G3 X-0.0666 Y2.3438 I2.5294 J-0.0813
G3 X-0.0416 Y1.9888 I2.5307 J0
G3 X0.0568 Y1.5632 I2.5057 J0.355
G3 X0.2195 Y1.1847 I2.125 J0.6891
G3 X0.4489 Y0.8426 I1.9623 J1.0676
G3 X0.7528 Y0.5287 I1.9632 J1.597
G3 X1.1062 Y0.2718 I1.6593 J1.9109
G3 X1.4771 Y0.0927 I1.1527 J1.9135
G3 X1.8747 Y-0.0153 I0.7817 J2.0927
G3 X2.253 Y-0.0524 I0.4353 J2.493
G3 X2.3099 Y-0.053 I0.0569 J2.5301
G3 X2.7452 Y-0.0153 I0 J2.5307
G3 X2.7508 Y-0.0143 I-0.3842 J2.2006
G3 X3.1428 Y0.0927 I-0.3898 J2.1996
G3 X3.5137 Y0.2718 I-0.7817 J2.0927
G3 X3.8671 Y0.5287 I-1.3059 J2.1678
G3 X4.171 Y0.8426 I-1.6593 J1.9109
G3 X4.4004 Y1.1847 I-1.7329 J1.4097
G3 X4.5631 Y1.5632 I-1.9623 J1.0676
G3 X4.6615 Y1.9888 I-2.4073 J0.7807
G3 X4.6865 Y2.3438 I-2.5057 J0.355
G3 X4.6852 Y2.4251 I-2.5307 J0
G3 X4.6341 Y2.8338 I-2.2328 J-0.0717
G3 X4.5087 Y3.2262 I-2.1816 J-0.4805
G3 X4.3276 Y3.5749 I-2.3296 J-0.9889
G3 X4.3039 Y3.6122 I-2.1484 J-1.3375
G3 X4.0358 Y3.9572 I-2.1248 J-1.3748
G3 X4.0233 Y3.9706 I-1.6389 J-1.518
G3 X3.7292 Y4.2323 I-1.6263 J-1.5315
G3 X3.3773 Y4.4464 I-1.3323 J-1.7931
G3 X3.0599 Y4.5756 I-1.1107 J-2.274
G1 X3.0599 Y5.947
G3 X3.0409 Y6.0427 I-0.25 J0
G3 X2.9867 Y6.1238 I-0.231 J-0.0957
G3 X2.9056 Y6.178 I-0.1768 J-0.1768
G3 X2.8099 Y6.197 I-0.0957 J-0.231
G1 X1.8099 Y6.197
G3 X1.7452 Y6.1885 I0 J-0.25
G3 X1.6849 Y6.1635 I0.0647 J-0.2415
G3 X1.6332 Y6.1238 I0.125 J-0.2165
G3 X1.5934 Y6.072 I0.1768 J-0.1768
G3 X1.5685 Y6.0117 I0.2165 J-0.125
G3 X1.5599 Y5.947 I0.2415 J-0.0647
G1 Z-0.6 F30
G1 X1.5599 Y4.5756 F20
G3 X1.2425 Y4.4464 I0.7933 J-2.4032
G3 X0.8907 Y4.2323 I0.9804 J-2.0073
G3 X0.6024 Y3.9767 I1.3323 J-1.7931
G1 Z-0.55 F30
G3 X0.5841 Y3.9572 I1.6205 J-1.5376 F20
G3 X0.3159 Y3.6122 I1.8566 J-1.7198
G3 X0.2968 Y3.5821 I2.1248 J-1.3748
G1 Z-0.6 F30
G3 X0.1111 Y3.2262 I2.144 J-1.3447 F20
G3 X-0.0142 Y2.8338 I2.0563 J-0.8729
G3 X-0.0653 Y2.4251 I2.1816 J-0.4805
G3 X-0.0666 Y2.3438 I2.5294 J-0.0813
G3 X-0.0416 Y1.9888 I2.5307 J0
G3 X0.0568 Y1.5632 I2.5057 J0.355
G3 X0.2195 Y1.1847 I2.125 J0.6891
G3 X0.4489 Y0.8426 I1.9623 J1.0676
G3 X0.7528 Y0.5287 I1.9632 J1.597
G3 X1.1062 Y0.2718 I1.6593 J1.9109
G3 X1.4771 Y0.0927 I1.1527 J1.9135
G3 X1.8747 Y-0.0153 I0.7817 J2.0927
G3 X2.253 Y-0.0524 I0.4353 J2.493
G1 Z-0.55 F30
G3 X2.3099 Y-0.053 I0.0569 J2.5301 F20
G3 X2.7452 Y-0.0153 I0 J2.5307
G3 X2.7508 Y-0.0143 I-0.3842 J2.2006
G1 Z-0.6 F30
G3 X3.1428 Y0.0927 I-0.3898 J2.1996 F20
G3 X3.5137 Y0.2718 I-0.7817 J2.0927
G3 X3.8671 Y0.5287 I-1.3059 J2.1678
G3 X4.171 Y0.8426 I-1.6593 J1.9109
G3 X4.4004 Y1.1847 I-1.7329 J1.4097
G3 X4.5631 Y1.5632 I-1.9623 J1.0676
G3 X4.6615 Y1.9888 I-2.4073 J0.7807
G3 X4.6865 Y2.3438 I-2.5057 J0.355
G3 X4.6852 Y2.4251 I-2.5307 J0
G3 X4.6341 Y2.8338 I-2.2328 J-0.0717
G3 X4.5087 Y3.2262 I-2.1816 J-0.4805
G3 X4.3276 Y3.5749 I-2.3296 J-0.9889
G1 Z-0.55 F30
G3 X4.3039 Y3.6122 I-2.1484 J-1.3375 F20
G3 X4.0358 Y3.9572 I-2.1248 J-1.3748
G3 X4.0233 Y3.9706 I-1.6389 J-1.518
G1 Z-0.6 F30
G3 X3.7292 Y4.2323 I-1.6263 J-1.5315 F20
G3 X3.3773 Y4.4464 I-1.3323 J-1.7931
G3 X3.0599 Y4.5756 I-1.1107 J-2.274
G1 X3.0599 Y5.947
G3 X3.0409 Y6.0427 I-0.25 J0
G3 X2.9867 Y6.1238 I-0.231 J-0.0957
G3 X2.9056 Y6.178 I-0.1768 J-0.1768
G3 X2.8099 Y6.197 I-0.0957 J-0.231
G1 X1.8099 Y6.197
G3 X1.7452 Y6.1885 I0 J-0.25
G3 X1.6849 Y6.1635 I0.0647 J-0.2415
G3 X1.6332 Y6.1238 I0.125 J-0.2165
G3 X1.5934 Y6.072 I0.1768 J-0.1768
G3 X1.5685 Y6.0117 I0.2165 J-0.125
G3 X1.5599 Y5.947 I0.2415 J-0.0647
G1 Z-0.75 F30
G1 X1.5599 Y4.5756 F20
G3 X1.2425 Y4.4464 I0.7933 J-2.4032
G3 X0.8907 Y4.2323 I0.9804 J-2.0073
G3 X0.6024 Y3.9767 I1.3323 J-1.7931
G1 Z-0.55 F30
G3 X0.5841 Y3.9572 I1.6205 J-1.5376 F20
G3 X0.3159 Y3.6122 I1.8566 J-1.7198
G3 X0.2968 Y3.5821 I2.1248 J-1.3748
G1 Z-0.75 F30
G3 X0.1111 Y3.2262 I2.144 J-1.3447 F20
G3 X-0.0142 Y2.8338 I2.0563 J-0.8729
G3 X-0.0653 Y2.4251 I2.1816 J-0.4805
G3 X-0.0666 Y2.3438 I2.5294 J-0.0813
G3 X-0.0416 Y1.9888 I2.5307 J0
G3 X0.0568 Y1.5632 I2.5057 J0.355
G3 X0.2195 Y1.1847 I2.125 J0.6891
G3 X0.4489 Y0.8426 I1.9623 J1.0676
G3 X0.7528 Y0.5287 I1.9632 J1.597
G3 X1.1062 Y0.2718 I1.6593 J1.9109
G3 X1.4771 Y0.0927 I1.1527 J1.9135
G3 X1.8747 Y-0.0153 I0.7817 J2.0927
G3 X2.253 Y-0.0524 I0.4353 J2.493
G1 Z-0.55 F30
G3 X2.3099 Y-0.053 I0.0569 J2.5301 F20
G3 X2.7452 Y-0.0153 I0 J2.5307
G3 X2.7508 Y-0.0143 I-0.3842 J2.2006
G1 Z-0.75 F30
G3 X3.1428 Y0.0927 I-0.3898 J2.1996 F20
G3 X3.5137 Y0.2718 I-0.7817 J2.0927
G3 X3.8671 Y0.5287 I-1.3059 J2.1678
G3 X4.171 Y0.8426 I-1.6593 J1.9109
G3 X4.4004 Y1.1847 I-1.7329 J1.4097
G3 X4.5631 Y1.5632 I-1.9623 J1.0676
G3 X4.6615 Y1.9888 I-2.4073 J0.7807
G3 X4.6865 Y2.3438 I-2.5057 J0.355
G3 X4.6852 Y2.4251 I-2.5307 J0
G3 X4.6341 Y2.8338 I-2.2328 J-0.0717
G3 X4.5087 Y3.2262 I-2.1816 J-0.4805
G3 X4.3276 Y3.5749 I-2.3296 J-0.9889
G1 Z-0.55 F30
G3 X4.3039 Y3.6122 I-2.1484 J-1.3375 F20
G3 X4.0358 Y3.9572 I-2.1248 J-1.3748
G3 X4.0233 Y3.9706 I-1.6389 J-1.518
G1 Z-0.75 F30
G3 X3.7292 Y4.2323 I-1.6263 J-1.5315 F20
G3 X3.3773 Y4.4464 I-1.3323 J-1.7931
G3 X3.0599 Y4.5756 I-1.1107 J-2.274
G1 X3.0599 Y5.947
G3 X3.0409 Y6.0427 I-0.25 J0
G3 X2.9867 Y6.1238 I-0.231 J-0.0957
G3 X2.9056 Y6.178 I-0.1768 J-0.1768
G3 X2.8099 Y6.197 I-0.0957 J-0.231
G1 X1.8099 Y6.197
G3 X1.7452 Y6.1885 I0 J-0.25
G3 X1.6849 Y6.1635 I0.0647 J-0.2415
G3 X1.6332 Y6.1238 I0.125 J-0.2165
G3 X1.5934 Y6.072 I0.1768 J-0.1768
G3 X1.5685 Y6.0117 I0.2165 J-0.125
G3 X1.5599 Y5.947 I0.2415 J-0.0647
G1 Z-0.8 F30
G1 X1.5599 Y4.5756 F20
G3 X1.2425 Y4.4464 I0.7933 J-2.4032
G3 X0.8907 Y4.2323 I0.9804 J-2.0073
G3 X0.6024 Y3.9767 I1.3323 J-1.7931
G1 Z-0.55 F30
G3 X0.5841 Y3.9572 I1.6205 J-1.5376 F20
G3 X0.3159 Y3.6122 I1.8566 J-1.7198
G3 X0.2968 Y3.5821 I2.1248 J-1.3748
G1 Z-0.8 F30
G3 X0.1111 Y3.2262 I2.144 J-1.3447 F20
G3 X-0.0142 Y2.8338 I2.0563 J-0.8729
G3 X-0.0653 Y2.4251 I2.1816 J-0.4805
G3 X-0.0666 Y2.3438 I2.5294 J-0.0813
G3 X-0.0416 Y1.9888 I2.5307 J0
G3 X0.0568 Y1.5632 I2.5057 J0.355
G3 X0.2195 Y1.1847 I2.125 J0.6891
G3 X0.4489 Y0.8426 I1.9623 J1.0676
G3 X0.7528 Y0.5287 I1.9632 J1.597
G3 X1.1062 Y0.2718 I1.6593 J1.9109
G3 X1.4771 Y0.0927 I1.1527 J1.9135
G3 X1.8747 Y-0.0153 I0.7817 J2.0927
G3 X2.253 Y-0.0524 I0.4353 J2.493
G1 Z-0.55 F30
G3 X2.3099 Y-0.053 I0.0569 J2.5301 F20
G3 X2.7452 Y-0.0153 I0 J2.5307
G3 X2.7508 Y-0.0143 I-0.3842 J2.2006
G1 Z-0.8 F30
G3 X3.1428 Y0.0927 I-0.3898 J2.1996 F20
G3 X3.5137 Y0.2718 I-0.7817 J2.0927
G3 X3.8671 Y0.5287 I-1.3059 J2.1678
G3 X4.171 Y0.8426 I-1.6593 J1.9109
G3 X4.4004 Y1.1847 I-1.7329 J1.4097
G3 X4.5631 Y1.5632 I-1.9623 J1.0676
G3 X4.6615 Y1.9888 I-2.4073 J0.7807
G3 X4.6865 Y2.3438 I-2.5057 J0.355
G3 X4.6852 Y2.4251 I-2.5307 J0
G3 X4.6341 Y2.8338 I-2.2328 J-0.0717
G3 X4.5087 Y3.2262 I-2.1816 J-0.4805
G3 X4.3276 Y3.5749 I-2.3296 J-0.9889
G1 Z-0.55 F30
G3 X4.3039 Y3.6122 I-2.1484 J-1.3375 F20
G3 X4.0358 Y3.9572 I-2.1248 J-1.3748
G3 X4.0233 Y3.9706 I-1.6389 J-1.518
G1 Z-0.8 F30
G3 X3.7292 Y4.2323 I-1.6263 J-1.5315 F20
G3 X3.3773 Y4.4464 I-1.3323 J-1.7931
G3 X3.0599 Y4.5756 I-1.1107 J-2.274
G1 X3.0599 Y5.947
G3 X3.0409 Y6.0427 I-0.25 J0
G3 X2.9867 Y6.1238 I-0.231 J-0.0957
G3 X2.9056 Y6.178 I-0.1768 J-0.1768
G3 X2.8099 Y6.197 I-0.0957 J-0.231
G1 X1.8099 Y6.197
G3 X1.7452 Y6.1885 I0 J-0.25
G3 X1.6849 Y6.1635 I0.0647 J-0.2415
G3 X1.6332 Y6.1238 I0.125 J-0.2165
G3 X1.5934 Y6.072 I0.1768 J-0.1768
G3 X1.5685 Y6.0117 I0.2165 J-0.125
G3 X1.5599 Y5.947 I0.2415 J-0.0647

(bottompocket)
G0 Z0.125
G0 X8.0454 Y5.8681
G1 Z-0.15 F30
G1 X8.0454 Y6.1681 F20
G1 X7.9954 Y6.1681
G1 X7.9954 Y5.8681
G1 X8.0454 Y5.8681
G1 X8.0937 Y5.7681 F20
G2 X8.1821 Y5.7315 I0 J-0.125 F20
G2 X8.1454 Y5.8199 I0.0884 J0.0884
G1 X8.1454 Y5.8199
G1 X8.1454 Y6.2164
G1 X8.1454 Y6.2164
G2 X8.1821 Y6.3048 I0.125 J0
G2 X8.0937 Y6.2681 I-0.0884 J0.0884
G1 X7.9472 Y6.2681
G2 X7.8588 Y6.3048 I0 J0.125
G2 X7.8954 Y6.2164 I-0.0884 J-0.0884
G1 X7.8954 Y6.2164
G1 X7.8954 Y5.8199
G1 X7.8954 Y5.8199
G2 X7.8588 Y5.7315 I-0.125 J0
G2 X7.9472 Y5.7681 I0.0884 J-0.0884
G1 X8.0937 Y5.7681
G0 Z0.125
G0 X8.0454 Y5.8681
G1 Z-0.3 F30
G1 X8.0454 Y6.1681 F20
G1 X7.9954 Y6.1681
G1 X7.9954 Y5.8681
G1 X8.0454 Y5.8681
G1 X8.0937 Y5.7681 F20
G2 X8.1821 Y5.7315 I0 J-0.125 F20
G2 X8.1454 Y5.8199 I0.0884 J0.0884
G1 X8.1454 Y5.8199
G1 X8.1454 Y6.2164
G1 X8.1454 Y6.2164
G2 X8.1821 Y6.3048 I0.125 J0
G2 X8.0937 Y6.2681 I-0.0884 J0.0884
G1 X7.9472 Y6.2681
G2 X7.8588 Y6.3048 I0 J0.125
G2 X7.8954 Y6.2164 I-0.0884 J-0.0884
G1 X7.8954 Y6.2164
G1 X7.8954 Y5.8199
G1 X7.8954 Y5.8199
G2 X7.8588 Y5.7315 I-0.125 J0
G2 X7.9472 Y5.7681 I0.0884 J-0.0884
G1 X8.0937 Y5.7681
G0 Z0.125
G0 X8.0454 Y5.8681
G1 Z-0.45 F30
G1 X8.0454 Y6.1681 F20
G1 X7.9954 Y6.1681
G1 X7.9954 Y5.8681
G1 X8.0454 Y5.8681
G1 X8.0937 Y5.7681 F20
G2 X8.1821 Y5.7315 I0 J-0.125 F20
G2 X8.1454 Y5.8199 I0.0884 J0.0884
G1 X8.1454 Y5.8199
G1 X8.1454 Y6.2164
G1 X8.1454 Y6.2164
G2 X8.1821 Y6.3048 I0.125 J0
G2 X8.0937 Y6.2681 I-0.0884 J0.0884
G1 X7.9472 Y6.2681
G2 X7.8588 Y6.3048 I0 J0.125
G2 X7.8954 Y6.2164 I-0.0884 J-0.0884
G1 X7.8954 Y6.2164
G1 X7.8954 Y5.8199
G1 X7.8954 Y5.8199
G2 X7.8588 Y5.7315 I-0.125 J0
G2 X7.9472 Y5.7681 I0.0884 J-0.0884
G1 X8.0937 Y5.7681
G0 Z0.125
G0 X8.0454 Y5.8681
G1 Z-0.6 F30
G1 X8.0454 Y6.1681 F20
G1 X7.9954 Y6.1681
G1 X7.9954 Y5.8681
G1 X8.0454 Y5.8681
G1 X8.0937 Y5.7681 F20
G2 X8.1821 Y5.7315 I0 J-0.125 F20
G2 X8.1454 Y5.8199 I0.0884 J0.0884
G1 X8.1454 Y5.8199
G1 X8.1454 Y6.2164
G1 X8.1454 Y6.2164
G2 X8.1821 Y6.3048 I0.125 J0
G2 X8.0937 Y6.2681 I-0.0884 J0.0884
G1 X7.9472 Y6.2681
G2 X7.8588 Y6.3048 I0 J0.125
G2 X7.8954 Y6.2164 I-0.0884 J-0.0884
G1 X7.8954 Y6.2164
G1 X7.8954 Y5.8199
G1 X7.8954 Y5.8199
G2 X7.8588 Y5.7315 I-0.125 J0
G2 X7.9472 Y5.7681 I0.0884 J-0.0884
G1 X8.0937 Y5.7681
G0 Z0.125
G0 X8.0454 Y5.8681
G1 Z-0.75 F30
G1 X8.0454 Y6.1681 F20
G1 X7.9954 Y6.1681
G1 X7.9954 Y5.8681
G1 X8.0454 Y5.8681
G1 X8.0937 Y5.7681 F20
G2 X8.1821 Y5.7315 I0 J-0.125 F20
G2 X8.1454 Y5.8199 I0.0884 J0.0884
G1 X8.1454 Y5.8199
G1 X8.1454 Y6.2164
G1 X8.1454 Y6.2164
G2 X8.1821 Y6.3048 I0.125 J0
G2 X8.0937 Y6.2681 I-0.0884 J0.0884
G1 X7.9472 Y6.2681
G2 X7.8588 Y6.3048 I0 J0.125
G2 X7.8954 Y6.2164 I-0.0884 J-0.0884
G1 X7.8954 Y6.2164
G1 X7.8954 Y5.8199
G1 X7.8954 Y5.8199
G2 X7.8588 Y5.7315 I-0.125 J0
G2 X7.9472 Y5.7681 I0.0884 J-0.0884
G1 X8.0937 Y5.7681
G0 Z0.125
G0 X8.0454 Y5.8681
G1 Z-0.8 F30
G1 X8.0454 Y6.1681 F20
G1 X7.9954 Y6.1681
G1 X7.9954 Y5.8681
G1 X8.0454 Y5.8681
G1 X8.0937 Y5.7681 F20
G2 X8.1821 Y5.7315 I0 J-0.125 F20
G2 X8.1454 Y5.8199 I0.0884 J0.0884
G1 X8.1454 Y5.8199
G1 X8.1454 Y6.2164
G1 X8.1454 Y6.2164
G2 X8.1821 Y6.3048 I0.125 J0
G2 X8.0937 Y6.2681 I-0.0884 J0.0884
G1 X7.9472 Y6.2681
G2 X7.8588 Y6.3048 I0 J0.125
G2 X7.8954 Y6.2164 I-0.0884 J-0.0884
G1 X7.8954 Y6.2164
G1 X7.8954 Y5.8199
G1 X7.8954 Y5.8199
G2 X7.8588 Y5.7315 I-0.125 J0
G2 X7.9472 Y5.7681 I0.0884 J-0.0884
G1 X8.0937 Y5.7681

(bottomring)
G0 Z0.125
G0 X8.5204 Y6.8931
G1 Z-0.15 F30
G1 X7.5204 Y6.8931 F20
G3 X7.4248 Y6.8741 I0 J-0.25
G3 X7.3437 Y6.8199 I0.0957 J-0.231
G3 X7.2895 Y6.7388 I0.1768 J-0.1768
G3 X7.2704 Y6.6431 I0.231 J-0.0957
G1 X7.2704 Y6.0519
G3 X6.8048 Y5.901 I0.7956 J-3.2481
G3 X6.3136 Y5.6443 I1.1042 J-2.7113
G3 X5.8796 Y5.2996 I1.5954 J-2.4546
G3 X5.4917 Y4.8542 I2.3182 J-2.4102
G3 X5.2522 Y4.4727 I2.7061 J-1.9647
G3 X5.1882 Y4.3474 I2.9456 J-1.5833
G3 X5.0518 Y4.0152 I2.6346 J-1.2763
G3 X4.9949 Y3.828 I2.7711 J-0.9442
G3 X4.9029 Y3.2814 I2.828 J-0.7569
G3 X4.8942 Y3.0411 I3.3355 J-0.2403
G3 X4.9126 Y2.6908 I3.3441 J0
G3 X5.0261 Y2.1111 I3.3257 J0.3503
G3 X5.23 Y1.5958 I2.812 J0.8141
G3 X5.5273 Y1.128 I2.6082 J1.3295
G3 X5.9297 Y0.6956 I2.6398 J2.053
G3 X6.4019 Y0.3407 I2.2374 J2.4854
G3 X6.8982 Y0.094 I1.5453 J2.4865
G3 X7.4321 Y-0.0547 I1.049 J2.7331
G3 X8.0093 Y-0.1068 I0.5884 J3.2919
G3 X8.0204 Y-0.1069 I0.0112 J3.3441
G3 X8.5075 Y-0.0712 I0 J3.3441
G3 X8.6088 Y-0.0547 I-0.4871 J3.3084
G3 X9.1427 Y0.094 I-0.5151 J2.8819
G3 X9.639 Y0.3407 I-1.049 J2.7331
G3 X10.1112 Y0.6956 I-1.7652 J2.8403
G3 X10.5136 Y1.128 I-2.2374 J2.4854
G3 X10.8109 Y1.5958 I-2.3109 J1.7972
G3 X11.0147 Y2.1111 I-2.6082 J1.3295
G3 X11.1283 Y2.6908 I-3.2122 J0.93
G3 X11.1467 Y3.0411 I-3.3257 J0.3503
G3 X11.138 Y3.2814 I-3.3441 J0
G3 X11.046 Y3.828 I-2.92 J-0.2104
G3 X10.8527 Y4.3474 I-2.828 J-0.7569
G3 X10.5492 Y4.8542 I-3.0096 J-1.458
G3 X10.504 Y4.9149 I-2.7061 J-1.9647
G3 X10.1726 Y5.2887 I-2.6609 J-2.0255
G3 X10.1613 Y5.2996 I-2.3295 J-2.3993
G3 X9.7273 Y5.6443 I-2.0294 J-2.11
G3 X9.2361 Y5.901 I-1.5954 J-2.4546
G3 X8.7704 Y6.0519 I-1.2613 J-3.0971
G1 X8.7704 Y6.6431
G3 X8.7514 Y6.7388 I-0.25 J0
G3 X8.6972 Y6.8199 I-0.231 J-0.0957
G3 X8.6161 Y6.8741 I-0.1768 J-0.1768
G3 X8.5204 Y6.8931 I-0.0957 J-0.231
G1 Z-0.3 F30
G1 X7.5204 Y6.8931 F20
G3 X7.4248 Y6.8741 I0 J-0.25
G3 X7.3437 Y6.8199 I0.0957 J-0.231
G3 X7.2895 Y6.7388 I0.1768 J-0.1768
G3 X7.2704 Y6.6431 I0.231 J-0.0957
G1 X7.2704 Y6.0519
G3 X6.8048 Y5.901 I0.7956 J-3.2481
G3 X6.3136 Y5.6443 I1.1042 J-2.7113
G3 X5.8796 Y5.2996 I1.5954 J-2.4546
G3 X5.4917 Y4.8542 I2.3182 J-2.4102
G3 X5.2522 Y4.4727 I2.7061 J-1.9647
G3 X5.1882 Y4.3474 I2.9456 J-1.5833
G3 X5.0518 Y4.0152 I2.6346 J-1.2763
G3 X4.9949 Y3.828 I2.7711 J-0.9442
G3 X4.9029 Y3.2814 I2.828 J-0.7569
G3 X4.8942 Y3.0411 I3.3355 J-0.2403
G3 X4.9126 Y2.6908 I3.3441 J0
G3 X5.0261 Y2.1111 I3.3257 J0.3503
G3 X5.23 Y1.5958 I2.812 J0.8141
G3 X5.5273 Y1.128 I2.6082 J1.3295
G3 X5.9297 Y0.6956 I2.6398 J2.053
G3 X6.4019 Y0.3407 I2.2374 J2.4854
G3 X6.8982 Y0.094 I1.5453 J2.4865
G3 X7.4321 Y-0.0547 I1.049 J2.7331
G3 X8.0093 Y-0.1068 I0.5884 J3.2919
G3 X8.0204 Y-0.1069 I0.0112 J3.3441
G3 X8.5075 Y-0.0712 I0 J3.3441
G3 X8.6088 Y-0.0547 I-0.4871 J3.3084
G3 X9.1427 Y0.094 I-0.5151 J2.8819
G3 X9.639 Y0.3407 I-1.049 J2.7331
G3 X10.1112 Y0.6956 I-1.7652 J2.8403
G3 X10.5136 Y1.128 I-2.2374 J2.4854
G3 X10.8109 Y1.5958 I-2.3109 J1.7972
G3 X11.0147 Y2.1111 I-2.6082 J1.3295
G3 X11.1283 Y2.6908 I-3.2122 J0.93
G3 X11.1467 Y3.0411 I-3.3257 J0.3503
G3 X11.138 Y3.2814 I-3.3441 J0
G3 X11.046 Y3.828 I-2.92 J-0.2104
G3 X10.8527 Y4.3474 I-2.828 J-0.7569
G3 X10.5492 Y4.8542 I-3.0096 J-1.458
G3 X10.504 Y4.9149 I-2.7061 J-1.9647
G3 X10.1726 Y5.2887 I-2.6609 J-2.0255
G3 X10.1613 Y5.2996 I-2.3295 J-2.3993
G3 X9.7273 Y5.6443 I-2.0294 J-2.11
G3 X9.2361 Y5.901 I-1.5954 J-2.4546
G3 X8.7704 Y6.0519 I-1.2613 J-3.0971
G1 X8.7704 Y6.6431
G3 X8.7514 Y6.7388 I-0.25 J0
G3 X8.6972 Y6.8199 I-0.231 J-0.0957
G3 X8.6161 Y6.8741 I-0.1768 J-0.1768
G3 X8.5204 Y6.8931 I-0.0957 J-0.231
G1 Z-0.45 F30
G1 X7.5204 Y6.8931 F20
G3 X7.4248 Y6.8741 I0 J-0.25
G3 X7.3437 Y6.8199 I0.0957 J-0.231
G3 X7.2895 Y6.7388 I0.1768 J-0.1768
G3 X7.2704 Y6.6431 I0.231 J-0.0957
G1 X7.2704 Y6.0519
G3 X6.8048 Y5.901 I0.7956 J-3.2481
G3 X6.3136 Y5.6443 I1.1042 J-2.7113
G3 X5.8796 Y5.2996 I1.5954 J-2.4546
G3 X5.4917 Y4.8542 I2.3182 J-2.4102
G3 X5.2522 Y4.4727 I2.7061 J-1.9647
G3 X5.1882 Y4.3474 I2.9456 J-1.5833
G3 X5.0518 Y4.0152 I2.6346 J-1.2763
G3 X4.9949 Y3.828 I2.7711 J-0.9442
G3 X4.9029 Y3.2814 I2.828 J-0.7569
G3 X4.8942 Y3.0411 I3.3355 J-0.2403
G3 X4.9126 Y2.6908 I3.3441 J0
G3 X5.0261 Y2.1111 I3.3257 J0.3503
G3 X5.23 Y1.5958 I2.812 J0.8141
G3 X5.5273 Y1.128 I2.6082 J1.3295
G3 X5.9297 Y0.6956 I2.6398 J2.053
G3 X6.4019 Y0.3407 I2.2374 J2.4854
G3 X6.8982 Y0.094 I1.5453 J2.4865
G3 X7.4321 Y-0.0547 I1.049 J2.7331
G3 X8.0093 Y-0.1068 I0.5884 J3.2919
G3 X8.0204 Y-0.1069 I0.0112 J3.3441
G3 X8.5075 Y-0.0712 I0 J3.3441
G3 X8.6088 Y-0.0547 I-0.4871 J3.3084
G3 X9.1427 Y0.094 I-0.5151 J2.8819
G3 X9.639 Y0.3407 I-1.049 J2.7331
G3 X10.1112 Y0.6956 I-1.7652 J2.8403
G3 X10.5136 Y1.128 I-2.2374 J2.4854
G3 X10.8109 Y1.5958 I-2.3109 J1.7972
G3 X11.0147 Y2.1111 I-2.6082 J1.3295
G3 X11.1283 Y2.6908 I-3.2122 J0.93
G3 X11.1467 Y3.0411 I-3.3257 J0.3503
G3 X11.138 Y3.2814 I-3.3441 J0
G3 X11.046 Y3.828 I-2.92 J-0.2104
G3 X10.8527 Y4.3474 I-2.828 J-0.7569
G3 X10.5492 Y4.8542 I-3.0096 J-1.458
G3 X10.504 Y4.9149 I-2.7061 J-1.9647
G3 X10.1726 Y5.2887 I-2.6609 J-2.0255
G3 X10.1613 Y5.2996 I-2.3295 J-2.3993
G3 X9.7273 Y5.6443 I-2.0294 J-2.11
G3 X9.2361 Y5.901 I-1.5954 J-2.4546
G3 X8.7704 Y6.0519 I-1.2613 J-3.0971
G1 X8.7704 Y6.6431
G3 X8.7514 Y6.7388 I-0.25 J0
G3 X8.6972 Y6.8199 I-0.231 J-0.0957
G3 X8.6161 Y6.8741 I-0.1768 J-0.1768
G3 X8.5204 Y6.8931 I-0.0957 J-0.231
G1 Z-0.6 F30
G1 X7.5204 Y6.8931 F20
G3 X7.4248 Y6.8741 I0 J-0.25
G3 X7.3437 Y6.8199 I0.0957 J-0.231
G3 X7.2895 Y6.7388 I0.1768 J-0.1768
G3 X7.2704 Y6.6431 I0.231 J-0.0957
G1 X7.2704 Y6.0519
G3 X6.8048 Y5.901 I0.7956 J-3.2481
G3 X6.3136 Y5.6443 I1.1042 J-2.7113
G3 X5.8796 Y5.2996 I1.5954 J-2.4546
G3 X5.4917 Y4.8542 I2.3182 J-2.4102
G3 X5.2522 Y4.4727 I2.7061 J-1.9647
G1 Z-0.55 F30
G3 X5.1882 Y4.3474 I2.9456 J-1.5833 F20
G3 X5.0518 Y4.0152 I2.6346 J-1.2763
G1 Z-0.6 F30
G3 X4.9949 Y3.828 I2.7711 J-0.9442 F20
G3 X4.9029 Y3.2814 I2.828 J-0.7569
G3 X4.8942 Y3.0411 I3.3355 J-0.2403
G3 X4.9126 Y2.6908 I3.3441 J0
G3 X5.0261 Y2.1111 I3.3257 J0.3503
G3 X5.23 Y1.5958 I2.812 J0.8141
G3 X5.5273 Y1.128 I2.6082 J1.3295
G3 X5.9297 Y0.6956 I2.6398 J2.053
G3 X6.4019 Y0.3407 I2.2374 J2.4854
G3 X6.8982 Y0.094 I1.5453 J2.4865
G3 X7.4321 Y-0.0547 I1.049 J2.7331
G3 X8.0093 Y-0.1068 I0.5884 J3.2919
G1 Z-0.55 F30
G3 X8.0204 Y-0.1069 I0.0112 J3.3441 F20
G3 X8.5075 Y-0.0712 I0 J3.3441
G1 Z-0.6 F30
G3 X8.6088 Y-0.0547 I-0.4871 J3.3084 F20
G3 X9.1427 Y0.094 I-0.5151 J2.8819
G3 X9.639 Y0.3407 I-1.049 J2.7331
G3 X10.1112 Y0.6956 I-1.7652 J2.8403
G3 X10.5136 Y1.128 I-2.2374 J2.4854
G3 X10.8109 Y1.5958 I-2.3109 J1.7972
G3 X11.0147 Y2.1111 I-2.6082 J1.3295
G3 X11.1283 Y2.6908 I-3.2122 J0.93
G3 X11.1467 Y3.0411 I-3.3257 J0.3503
G3 X11.138 Y3.2814 I-3.3441 J0
G3 X11.046 Y3.828 I-2.92 J-0.2104
G3 X10.8527 Y4.3474 I-2.828 J-0.7569
G3 X10.5492 Y4.8542 I-3.0096 J-1.458
G3 X10.504 Y4.9149 I-2.7061 J-1.9647
G1 Z-0.55 F30
G3 X10.1726 Y5.2887 I-2.6609 J-2.0255 F20
G1 Z-0.6 F30
G3 X10.1613 Y5.2996 I-2.3295 J-2.3993 F20
G3 X9.7273 Y5.6443 I-2.0294 J-2.11
G3 X9.2361 Y5.901 I-1.5954 J-2.4546
G3 X8.7704 Y6.0519 I-1.2613 J-3.0971
G1 X8.7704 Y6.6431
G3 X8.7514 Y6.7388 I-0.25 J0
G3 X8.6972 Y6.8199 I-0.231 J-0.0957
G3 X8.6161 Y6.8741 I-0.1768 J-0.1768
G3 X8.5204 Y6.8931 I-0.0957 J-0.231
G1 Z-0.75 F30
G1 X7.5204 Y6.8931 F20
G3 X7.4248 Y6.8741 I0 J-0.25
G3 X7.3437 Y6.8199 I0.0957 J-0.231
G3 X7.2895 Y6.7388 I0.1768 J-0.1768
G3 X7.2704 Y6.6431 I0.231 J-0.0957
G1 X7.2704 Y6.0519
G3 X6.8048 Y5.901 I0.7956 J-3.2481
G3 X6.3136 Y5.6443 I1.1042 J-2.7113
G3 X5.8796 Y5.2996 I1.5954 J-2.4546
G3 X5.4917 Y4.8542 I2.3182 J-2.4102
G3 X5.2522 Y4.4727 I2.7061 J-1.9647
G1 Z-0.55 F30
G3 X5.1882 Y4.3474 I2.9456 J-1.5833 F20
G3 X5.0518 Y4.0152 I2.6346 J-1.2763
G1 Z-0.75 F30
G3 X4.9949 Y3.828 I2.7711 J-0.9442 F20
G3 X4.9029 Y3.2814 I2.828 J-0.7569
G3 X4.8942 Y3.0411 I3.3355 J-0.2403
G3 X4.9126 Y2.6908 I3.3441 J0
G3 X5.0261 Y2.1111 I3.3257 J0.3503
G3 X5.23 Y1.5958 I2.812 J0.8141
G3 X5.5273 Y1.128 I2.6082 J1.3295
G3 X5.9297 Y0.6956 I2.6398 J2.053
G3 X6.4019 Y0.3407 I2.2374 J2.4854
G3 X6.8982 Y0.094 I1.5453 J2.4865
G3 X7.4321 Y-0.0547 I1.049 J2.7331
G3 X8.0093 Y-0.1068 I0.5884 J3.2919
G1 Z-0.55 F30
G3 X8.0204 Y-0.1069 I0.0112 J3.3441 F20
G3 X8.5075 Y-0.0712 I0 J3.3441
G1 Z-0.75 F30
G3 X8.6088 Y-0.0547 I-0.4871 J3.3084 F20
G3 X9.1427 Y0.094 I-0.5151 J2.8819
G3 X9.639 Y0.3407 I-1.049 J2.7331
G3 X10.1112 Y0.6956 I-1.7652 J2.8403
G3 X10.5136 Y1.128 I-2.2374 J2.4854
G3 X10.8109 Y1.5958 I-2.3109 J1.7972
G3 X11.0147 Y2.1111 I-2.6082 J1.3295
G3 X11.1283 Y2.6908 I-3.2122 J0.93
G3 X11.1467 Y3.0411 I-3.3257 J0.3503
G3 X11.138 Y3.2814 I-3.3441 J0
G3 X11.046 Y3.828 I-2.92 J-0.2104
G3 X10.8527 Y4.3474 I-2.828 J-0.7569
G3 X10.5492 Y4.8542 I-3.0096 J-1.458
G3 X10.504 Y4.9149 I-2.7061 J-1.9647
G1 Z-0.55 F30
G3 X10.1726 Y5.2887 I-2.6609 J-2.0255 F20
G1 Z-0.75 F30
G3 X10.1613 Y5.2996 I-2.3295 J-2.3993 F20
G3 X9.7273 Y5.6443 I-2.0294 J-2.11
G3 X9.2361 Y5.901 I-1.5954 J-2.4546
G3 X8.7704 Y6.0519 I-1.2613 J-3.0971
G1 X8.7704 Y6.6431
G3 X8.7514 Y6.7388 I-0.25 J0
G3 X8.6972 Y6.8199 I-0.231 J-0.0957
G3 X8.6161 Y6.8741 I-0.1768 J-0.1768
G3 X8.5204 Y6.8931 I-0.0957 J-0.231
G1 Z-0.8 F30
G1 X7.5204 Y6.8931 F20
G3 X7.4248 Y6.8741 I0 J-0.25
G3 X7.3437 Y6.8199 I0.0957 J-0.231
G3 X7.2895 Y6.7388 I0.1768 J-0.1768
G3 X7.2704 Y6.6431 I0.231 J-0.0957
G1 X7.2704 Y6.0519
G3 X6.8048 Y5.901 I0.7956 J-3.2481
G3 X6.3136 Y5.6443 I1.1042 J-2.7113
G3 X5.8796 Y5.2996 I1.5954 J-2.4546
G3 X5.4917 Y4.8542 I2.3182 J-2.4102
G3 X5.2522 Y4.4727 I2.7061 J-1.9647
G1 Z-0.55 F30
G3 X5.1882 Y4.3474 I2.9456 J-1.5833 F20
G3 X5.0518 Y4.0152 I2.6346 J-1.2763
G1 Z-0.8 F30
G3 X4.9949 Y3.828 I2.7711 J-0.9442 F20
G3 X4.9029 Y3.2814 I2.828 J-0.7569
G3 X4.8942 Y3.0411 I3.3355 J-0.2403
G3 X4.9126 Y2.6908 I3.3441 J0
G3 X5.0261 Y2.1111 I3.3257 J0.3503
G3 X5.23 Y1.5958 I2.812 J0.8141
G3 X5.5273 Y1.128 I2.6082 J1.3295
G3 X5.9297 Y0.6956 I2.6398 J2.053
G3 X6.4019 Y0.3407 I2.2374 J2.4854
G3 X6.8982 Y0.094 I1.5453 J2.4865
G3 X7.4321 Y-0.0547 I1.049 J2.7331
G3 X8.0093 Y-0.1068 I0.5884 J3.2919
G1 Z-0.55 F30
G3 X8.0204 Y-0.1069 I0.0112 J3.3441 F20
G3 X8.5075 Y-0.0712 I0 J3.3441
G1 Z-0.8 F30
G3 X8.6088 Y-0.0547 I-0.4871 J3.3084 F20
G3 X9.1427 Y0.094 I-0.5151 J2.8819
G3 X9.639 Y0.3407 I-1.049 J2.7331
G3 X10.1112 Y0.6956 I-1.7652 J2.8403
G3 X10.5136 Y1.128 I-2.2374 J2.4854
G3 X10.8109 Y1.5958 I-2.3109 J1.7972
G3 X11.0147 Y2.1111 I-2.6082 J1.3295
G3 X11.1283 Y2.6908 I-3.2122 J0.93
G3 X11.1467 Y3.0411 I-3.3257 J0.3503
G3 X11.138 Y3.2814 I-3.3441 J0
G3 X11.046 Y3.828 I-2.92 J-0.2104
G3 X10.8527 Y4.3474 I-2.828 J-0.7569
G3 X10.5492 Y4.8542 I-3.0096 J-1.458
G3 X10.504 Y4.9149 I-2.7061 J-1.9647
G1 Z-0.55 F30
G3 X10.1726 Y5.2887 I-2.6609 J-2.0255 F20
G1 Z-0.8 F30
G3 X10.1613 Y5.2996 I-2.3295 J-2.3993 F20
G3 X9.7273 Y5.6443 I-2.0294 J-2.11
G3 X9.2361 Y5.901 I-1.5954 J-2.4546
G3 X8.7704 Y6.0519 I-1.2613 J-3.0971
G1 X8.7704 Y6.6431
G3 X8.7514 Y6.7388 I-0.25 J0
G3 X8.6972 Y6.8199 I-0.231 J-0.0957
G3 X8.6161 Y6.8741 I-0.1768 J-0.1768
G3 X8.5204 Y6.8931 I-0.0957 J-0.231

(stick)
G0 Z0.125
G0 X11.4317 Y7.7907
G1 Z-0.15 F30
G1 X11.4317 Y2.7907 F20
G1 X11.4317 Y2.2907
G1 X11.4317 Y0.7907
G3 X11.5567 Y0.6657 I0.125 J0
G1 X11.5567 Y0.0407
G3 X11.6817 Y-0.0843 I0.125 J0
G1 X12.1817 Y-0.0843
G3 X12.3067 Y0.0407 I0 J0.125
G1 X12.3067 Y0.6657
G3 X12.4317 Y0.7907 I0 J0.125
G1 X12.4317 Y5.728
G1 X12.4317 Y6.228
G1 X12.4317 Y7.7907
G3 X12.3067 Y7.9157 I-0.125 J0
G1 X12.3067 Y8.5407
G3 X12.1817 Y8.6657 I-0.125 J0
G1 X11.6817 Y8.6657
G3 X11.5567 Y8.5407 I0 J-0.125
G1 X11.5567 Y7.9157
G3 X11.4317 Y7.7907 I0 J-0.125
G1 Z-0.3 F30
G1 X11.4317 Y2.7907 F20
G1 X11.4317 Y2.2907
G1 X11.4317 Y0.7907
G3 X11.5567 Y0.6657 I0.125 J0
G1 X11.5567 Y0.0407
G3 X11.6817 Y-0.0843 I0.125 J0
G1 X12.1817 Y-0.0843
G3 X12.3067 Y0.0407 I0 J0.125
G1 X12.3067 Y0.6657
G3 X12.4317 Y0.7907 I0 J0.125
G1 X12.4317 Y5.728
G1 X12.4317 Y6.228
G1 X12.4317 Y7.7907
G3 X12.3067 Y7.9157 I-0.125 J0
G1 X12.3067 Y8.5407
G3 X12.1817 Y8.6657 I-0.125 J0
G1 X11.6817 Y8.6657
G3 X11.5567 Y8.5407 I0 J-0.125
G1 X11.5567 Y7.9157
G3 X11.4317 Y7.7907 I0 J-0.125
G1 Z-0.45 F30
G1 X11.4317 Y2.7907 F20
G1 X11.4317 Y2.2907
G1 X11.4317 Y0.7907
G3 X11.5567 Y0.6657 I0.125 J0
G1 X11.5567 Y0.0407
G3 X11.6817 Y-0.0843 I0.125 J0
G1 X12.1817 Y-0.0843
G3 X12.3067 Y0.0407 I0 J0.125
G1 X12.3067 Y0.6657
G3 X12.4317 Y0.7907 I0 J0.125
G1 X12.4317 Y5.728
G1 X12.4317 Y6.228
G1 X12.4317 Y7.7907
G3 X12.3067 Y7.9157 I-0.125 J0
G1 X12.3067 Y8.5407
G3 X12.1817 Y8.6657 I-0.125 J0
G1 X11.6817 Y8.6657
G3 X11.5567 Y8.5407 I0 J-0.125
G1 X11.5567 Y7.9157
G3 X11.4317 Y7.7907 I0 J-0.125
G1 Z-0.6 F30
G1 X11.4317 Y2.7907 F20
G1 Z-0.55 F30
G1 X11.4317 Y2.2907 F20
G1 Z-0.6 F30
G1 X11.4317 Y0.7907 F20
G3 X11.5567 Y0.6657 I0.125 J0
G1 X11.5567 Y0.0407
G3 X11.6817 Y-0.0843 I0.125 J0
G1 X12.1817 Y-0.0843
G3 X12.3067 Y0.0407 I0 J0.125
G1 X12.3067 Y0.6657
G3 X12.4317 Y0.7907 I0 J0.125
G1 X12.4317 Y5.728
G1 Z-0.55 F30
G1 X12.4317 Y6.228 F20
G1 Z-0.6 F30
G1 X12.4317 Y7.7907 F20
G3 X12.3067 Y7.9157 I-0.125 J0
G1 X12.3067 Y8.5407
G3 X12.1817 Y8.6657 I-0.125 J0
G1 X11.6817 Y8.6657
G3 X11.5567 Y8.5407 I0 J-0.125
G1 X11.5567 Y7.9157
G3 X11.4317 Y7.7907 I0 J-0.125
G1 Z-0.75 F30
G1 X11.4317 Y2.7907 F20
G1 Z-0.55 F30
G1 X11.4317 Y2.2907 F20
G1 Z-0.75 F30
G1 X11.4317 Y0.7907 F20
G3 X11.5567 Y0.6657 I0.125 J0
G1 X11.5567 Y0.0407
G3 X11.6817 Y-0.0843 I0.125 J0
G1 X12.1817 Y-0.0843
G3 X12.3067 Y0.0407 I0 J0.125
G1 X12.3067 Y0.6657
G3 X12.4317 Y0.7907 I0 J0.125
G1 X12.4317 Y5.728
G1 Z-0.55 F30
G1 X12.4317 Y6.228 F20
G1 Z-0.75 F30
G1 X12.4317 Y7.7907 F20
G3 X12.3067 Y7.9157 I-0.125 J0
G1 X12.3067 Y8.5407
G3 X12.1817 Y8.6657 I-0.125 J0
G1 X11.6817 Y8.6657
G3 X11.5567 Y8.5407 I0 J-0.125
G1 X11.5567 Y7.9157
G3 X11.4317 Y7.7907 I0 J-0.125
G1 Z-0.8 F30
G1 X11.4317 Y2.7907 F20
G1 Z-0.55 F30
G1 X11.4317 Y2.2907 F20
G1 Z-0.8 F30
G1 X11.4317 Y0.7907 F20
G3 X11.5567 Y0.6657 I0.125 J0
G1 X11.5567 Y0.0407
G3 X11.6817 Y-0.0843 I0.125 J0
G1 X12.1817 Y-0.0843
G3 X12.3067 Y0.0407 I0 J0.125
G1 X12.3067 Y0.6657
G3 X12.4317 Y0.7907 I0 J0.125
G1 X12.4317 Y5.728
G1 Z-0.55 F30
G1 X12.4317 Y6.228 F20
G1 Z-0.8 F30
G1 X12.4317 Y7.7907 F20
G3 X12.3067 Y7.9157 I-0.125 J0
G1 X12.3067 Y8.5407
G3 X12.1817 Y8.6657 I-0.125 J0
G1 X11.6817 Y8.6657
G3 X11.5567 Y8.5407 I0 J-0.125
G1 X11.5567 Y7.9157
G3 X11.4317 Y7.7907 I0 J-0.125
G0 Z0.125
M5
M30
